src/images/twitter_grey.svg

<svg width="64" height="64" viewBox="0 0 64 64" fill="none" xmlns="http://www.w3.org/2000/svg">
<path d="M32 0C14.328 0 0 14.328 0 32C0 49.672 14.328 64 32 64C49.672 64 64 49.672 64 32C64 14.328 49.672 0 32 0ZM48.176 25.72C48.664 36.4933 40.6293 48.504 26.4053 48.504C22.08 48.504 18.056 47.2347 14.6667 45.0613C18.7307 45.5413 22.7867 44.4107 26.0053 41.8907C22.656 41.8293 19.8267 39.6133 18.848 36.5707C20.0507 36.8 21.2347 36.7333 22.3093 36.44C18.6267 35.6987 16.0827 32.3813 16.1653 28.832C17.2 29.4053 18.3787 29.7493 19.6347 29.7893C16.224 27.5093 15.2587 23.0053 17.264 19.5627C21.04 24.1973 26.6853 27.2453 33.0507 27.5653C31.9333 22.776 35.568 18.16 40.5147 18.16C42.7147 18.16 44.7067 19.0907 46.104 20.5787C47.848 20.2373 49.4907 19.5973 50.968 18.72C50.3947 20.5093 49.1813 22.008 47.6 22.9573C49.1493 22.7707 50.6267 22.36 51.9973 21.7493C50.9733 23.2907 49.6773 24.64 48.176 25.72V25.72Z" fill="#F0F0F2"/>
</svg>

<svg fill="none" xmlns="http://www.w3.org/2000/svg" viewBox="0 0 64 64"><path d="M32 0C14.328 0 0 14.328 0 32s14.328 32 32 32 32-14.328 32-32S49.672 0 32 0Zm16.176 25.72c.488 10.773-7.547 22.784-21.77 22.784a21.67 21.67 0 0 1-11.74-3.443c4.065.48 8.12-.65 11.34-3.17-3.35-.062-6.18-2.278-7.158-5.32a7.683 7.683 0 0 0 3.461-.131c-3.682-.741-6.226-4.059-6.144-7.608a7.642 7.642 0 0 0 3.47.957c-3.411-2.28-4.376-6.784-2.371-10.226 3.776 4.634 9.421 7.682 15.787 8.002-1.118-4.789 2.517-9.405 7.464-9.405 2.2 0 4.192.93 5.589 2.419a15.28 15.28 0 0 0 4.864-1.859 7.69 7.69 0 0 1-3.368 4.237 15.276 15.276 0 0 0 4.397-1.208 15.373 15.373 0 0 1-3.821 3.971Z" fill="#F0F0F2"/></svg>
